X: 1632
T: Thirty Years Ago
M:2/4
L:1/16
B:O'Neills 1632
N:"collected by F. O'Neill"
Z:Transcribed by Nick Terhorst, nickte@microsoft.com
N: Fixed line wrapping [jc]
K:G
Bc|dBeB dBAB|GFGA GDGA|BGBd cBAG|FGAF D2Bc|
|dBeB dBAB|GFGA GABc|defe dcAF| G2{A}GF G2:|
|:(3DEF|GFGA B2AG|FGAF DEFD|GFGA B2AG|Adde dcBA|
|GFGA B2AG|FGAB c2Bd|defe dcAF|G{A}GF G2:|


